lib/assets/images/alert.svg

<svg width="40" height="40" viewBox="0 0 40 40" fill="none" xmlns="http://www.w3.org/2000/svg">
<path fill-rule="evenodd" clip-rule="evenodd" d="M10 23.8984C10 25.0962 10.971 26.0672 12.1689 26.0672H27.8311C29.029 26.0672 30 25.0962 30 23.8984C30 23.3232 29.7715 22.7715 29.3648 22.3648L28.7095 21.7095C27.6015 20.6015 26.8945 19.1559 26.7001 17.6011L26.1822 13.4575C25.7925 10.3397 23.1421 8 20 8C16.8579 8 14.2075 10.3397 13.8178 13.4575L13.2999 17.6011C13.1055 19.1559 12.3985 20.6015 11.2905 21.7095L10.6352 22.3648C10.2285 22.7715 10 23.3232 10 23.8984ZM22.8356 29.0491C23.0163 28.5272 22.5523 28.0672 22 28.0672H18C17.4477 28.0672 16.9837 28.5272 17.1644 29.0491C17.5711 30.2238 18.687 31.0672 20 31.0672C21.313 31.0672 22.4289 30.2238 22.8356 29.0491Z" fill="black"/>
</svg>

<svg width="40" height="40" fill="none" xmlns="http://www.w3.org/2000/svg"><path fill-rule="evenodd" clip-rule="evenodd" d="M10 23.898c0 1.198.971 2.17 2.169 2.17H27.83a2.169 2.169 0 0 0 1.534-3.703l-.655-.655A7.046 7.046 0 0 1 26.7 17.6l-.518-4.143a6.23 6.23 0 0 0-12.364 0L13.3 17.6a7.046 7.046 0 0 1-2.01 4.108l-.655.656A2.169 2.169 0 0 0 10 23.898zm12.836 5.151c.18-.522-.284-.982-.836-.982h-4c-.552 0-1.016.46-.836.982a3.001 3.001 0 0 0 5.672 0z" fill="#000"/></svg>
